Obsidian-SemiLight/actions/24s/edit-table-insert-column-right.svg

<svg viewBox="0 0 24 24" xmlns="http://www.w3.org/2000/svg"><path d="m4 4v1 15h1 9v-1h-4v-2h4v-1h-4v-2h4 6v-1h-6-4v-2h4v-1h-4v-2h4v-1h-4v-1-1h4 6v-1h-6zm1 1h4v1 1h-1-3zm0 3h3 1v2h-4zm0 3h4v2h-4zm0 3h4v2h-1-3zm10 1v5l5-2.5zm-10 2h3 1v1.099609.900391h-4z" fill="#4d4d4d"/><path d="m14 4v1 5.292969 2.707031 1h6v-1-8-1zm1 1h4v.2929688l-4 4zm4 1.7070312v2.5859376l-3.707031 3.7070312h-.292969v-2.292969zm0 3.9999998v2.292969h-2.292969z" fill="#3daee9"/></svg>

<svg xmlns="http://www.w3.org/2000/svg" viewBox="0 0 24 24">
  <defs id="defs3051">
    <style type="text/css" id="current-color-scheme">
      .ColorScheme-Text {
        color:#4d4d4d;
      }
      .ColorScheme-Highlight {
        color:#3daee9;
      }
      </style>
  </defs>
 <path 
     style="fill:currentColor;fill-opacity:1;stroke:none" 
     d="M 4 4 L 4 5 L 4 20 L 5 20 L 14 20 L 14 19 L 10 19 L 10 17 L 14 17 L 14 16 L 10 16 L 10 14 L 14 14 L 20 14 L 20 13 L 14 13 L 10 13 L 10 11 L 14 11 L 14 10 L 10 10 L 10 8 L 14 8 L 14 7 L 10 7 L 10 6 L 10 5 L 14 5 L 20 5 L 20 4 L 14 4 L 4 4 z M 5 5 L 9 5 L 9 6 L 9 7 L 8 7 L 5 7 L 5 5 z M 5 8 L 8 8 L 9 8 L 9 10 L 5 10 L 5 8 z M 5 11 L 9 11 L 9 13 L 5 13 L 5 11 z M 5 14 L 9 14 L 9 16 L 8 16 L 5 16 L 5 14 z M 15 15 L 15 20 L 20 17.5 L 15 15 z M 5 17 L 8 17 L 9 17 L 9 18.099609 L 9 19 L 5 19 L 5 17 z "
     class="ColorScheme-Text"
     />
 <path 
     style="fill:currentColor;fill-opacity:1;stroke:none" 
     d="M 14 4 L 14 5 L 14 10.292969 L 14 13 L 14 14 L 20 14 L 20 13 L 20 5 L 20 4 L 14 4 z M 15 5 L 19 5 L 19 5.2929688 L 15 9.2929688 L 15 5 z M 19 6.7070312 L 19 9.2929688 L 15.292969 13 L 15 13 L 15 10.707031 L 19 6.7070312 z M 19 10.707031 L 19 13 L 16.707031 13 L 19 10.707031 z "
     class="ColorScheme-Highlight"
     />
</svg>
